X:1
T:Title
%%score { 1 | 2 }
L:1/8
M:4/4
K:Bb
V:1 treble nm="Grand Piano"
V:2 bass 
V:1
 z4[Q:1/4=94] [DF]2 [DB]2 | [EB]3 [EA] [EA]2 G2 | G2 F2 F2 [Fd]2 | [Gd]2 [Gc]2 [Gc]3 [GB] | %4
[M:2/4] A4 | F2 F2 |[M:4/4] G3 F F2 F2 | G3 F [DG]2 [DA]2 | [DB]2 [B,G]2 [CA]2 [B,G]2 | %9
[M:2/4] [A,F]4 | F2 F2 |[M:4/4] F2 C2 D2 E2 | E2 D2 G2 G2 | G2 D2 E2 F2 |[M:2/4] F2 E2 | E2 E2 | %16
[M:4/4] e3 e d2 [Fc]2 | [Fc]2 [FB]2 [GB]2 [Gc]2 | d2 B2 c3 d |[M:2/4] [DB]4 |] %20
V:2
 z4 [B,,F,]2 [B,,F,]2 | [C,F,]3 [C,F,] [C,F,]2 [C,F,A,]2 | [D,F,B,]2 [D,F,B,]2 [D,B,]2 [D,B,]2 | %3
 [E,B,]2 [E,C]2 [E,C]3 [E,C] |[M:2/4] [F,CF]4 | [F,A,C]2 [F,A,C]2 | %6
[M:4/4] [E,A,C]3 [F,A,C] [F,A,C]2 [F,A,C]2 | [D,B,]3 [F,B,D] [B,,B,]2 [A,,^F,]2 | %8
 [G,,G,]2 [G,,G,]2 [C,=E,]2 [C,E,]2 |[M:2/4] [F,,F,]4 | [F,A,C]2 [F,A,C]2 | %11
[M:4/4] [F,A,C]2 [F,A,]2 [F,A,]2 [F,A,C]2 | [B,,B,]2 [B,,B,]2 [G,=B,D]2 [G,B,D]2 | %13
 [G,=B,D]2 [G,B,]2 [G,B,]2 [G,B,D]2 |[M:2/4] [C,C]4 | [C,G,C]2 [C,G,C]2 | %16
[M:4/4] [F,,A,C]3 [F,,A,C] [F,A,F]2 [E,A,]2 | [D,A,]2 [D,B,]2 [E,B,]2 [E,B,]2 | %18
 [F,B,F]2 [F,B,D]2 [F,A,E]3 [F,A,F] |[M:2/4] [B,,B,]4 |] %20

